X:114
T: FRAENDE NUZT SEN MIR ZESOEMEN
N: E1168
O: Europa, Mitteleuropa, Deutschland; Rumaenien, Siebenbuergen, Noesen
R: Trink -, Zech - Lied
M: 6/8
L: 1/8
K: G
 | d2Bc2A | B2GG2G |
A2Bc2d | B3z3 |
A2Bc2A | B2cddd |
e2cAAF | G3z3

@@@ Tune index: 4798
